assets/img/braze_icons/send-03.svg

<svg fill="none" height="24" viewBox="0 0 24 24" width="24" xmlns="http://www.w3.org/2000/svg"><path d="m22.126 12.6649c.2072-.419.2072-.9106 0-1.3296-.1824-.369-.5025-.5624-.6684-.6558-.1785-.1004-.4073-.2034-.6355-.306l-16.78377-7.55265c-.23343-.10509-.46615-.20986-.66246-.27786-.18023-.06243-.5431-.1765-.94487-.06471-.45401.12633-.82227.45869-.99434.89742-.15226.38823-.07588.76086-.03219.94653.04758.20225.12803.4445.20872.68747l1.62448 4.89432c.1308.39408.1962.59108.31781.73678.10739.1287.2454.2283.40133.2897.17658.0695.38419.0695.7994.0695h7.24369c.5523 0 1 .4477 1 1s-.4477 1-1 1h-7.22478c-.41416 0-.62125 0-.79751.0692-.15566.0612-.29349.1604-.40089.2886-.12162.1452-.18736.3415-.31884.7343l-1.63755 4.8915c-.08157.2436-.16281.4861-.21101.6886-.04419.1856-.12185.5589.03.9481.17148.4396.53977.7728.99421.8997.40243.1123.76612-.0022.94641-.0647.1967-.0681.42999-.1731.66419-.2786l16.77797-7.55c.2281-.1027.457-.2056.6356-.3061.1658-.0933.4859-.2868.6683-.6557z" fill="#801ed7"/></svg>

<svg width="24" height="24" viewBox="0 0 24 24" fill="none" xmlns="http://www.w3.org/2000/svg">
<path d="M22.126 12.6649C22.3332 12.2459 22.3332 11.7543 22.126 11.3353C21.9436 10.9663 21.6235 10.7729 21.4576 10.6795C21.2791 10.5791 21.0503 10.4761 20.8221 10.3735L4.03833 2.82085C3.8049 2.71576 3.57218 2.61099 3.37587 2.54299C3.19564 2.48056 2.83277 2.36649 2.431 2.47828C1.97699 2.60461 1.60873 2.93697 1.43666 3.3757C1.2844 3.76393 1.36078 4.13656 1.40447 4.32223C1.45205 4.52448 1.5325 4.76673 1.61319 5.0097L3.23767 9.90402C3.36847 10.2981 3.43387 10.4951 3.55548 10.6408C3.66287 10.7695 3.80088 10.8691 3.95681 10.9305C4.13339 11 4.341 11 4.75621 11H11.9999C12.5522 11 12.9999 11.4477 12.9999 12C12.9999 12.5523 12.5522 13 11.9999 13H4.77512C4.36096 13 4.15387 13 3.97761 13.0692C3.82195 13.1304 3.68412 13.2296 3.57672 13.3578C3.4551 13.503 3.38936 13.6993 3.25788 14.0921L1.62033 18.9836C1.53876 19.2272 1.45752 19.4697 1.40932 19.6722C1.36513 19.8578 1.28747 20.2311 1.43932 20.6203C1.6108 21.0599 1.97909 21.3931 2.43353 21.52C2.83596 21.6323 3.19965 21.5178 3.37994 21.4553C3.57664 21.3872 3.80993 21.2822 4.04413 21.1767L20.8221 13.6267C21.0502 13.524 21.2791 13.4211 21.4577 13.3206C21.6235 13.2273 21.9436 13.0338 22.126 12.6649Z" fill="#801ED7"/>
</svg>
